!! 00007] TT[TB
!! Eigene Aufnahme
!!!OTL: Gusu fengguang(Da jiulianhuan)
!!!ARE: Asia, China,ÿJiangsu, Suzhou
!! Ethnic Group: Han
!! III, 494
!!!SCT: C0169B
!!!YEM: Copyright 1995, estate of Helmut Schaffrath.
**kern
*ICvox
*Ivox
!! Mixed meters:  2/4; 3/4
*MZ
*k[f#c#]
*D:
{8ee
16ff#
16ee
4dd
=1
16ff#
8ee
16ff#
16dd
16ee
16a
16b
=2
16a
16f#
8e
8f#
8a
=3
16b
32a
32b
16dd
[16b
4b]}
=4
{8dd
16ff#
16ee
16ee
16dd
16b
16dd
=5
4.a
16dd
16b
=6
8dd
4a}
{16b
16a
=7
8.f#
16e
16d
16e
16B
16d
=8
4.e}
{8f#
=9
8.a
16f#
8dd
16ee
16dd
=10
8.b
16a
4f#
=11
16a
16f#
16b
16dd
16b
16a
16f#
16a
=12
8d
8B
4e}
=13
{8.f#
16dd
8f#
8a
=14
16dd
8.dd
16b
16a
16a
16f#
=15
4.a
16b
16a
=16
8.f#
16e
8d
16B
16d
=17
4e
4r}
=18
{8.a
16f#
8dd
16ee
16dd
=19
16b
16dd
16b
16a
8.a
16f#
=20
8e
16f#
16a
16e
16f#
8d
=21
8d
4.B}
=22
{4ee
8dd
16ee
16dd
=23
16.b
32dd
16b
16a
16f#
16a
8f#}
=24
{8b
8dd
8b
8dd
=25
16ff#
8ee
16ff#
16ee
16dd
16b
16dd
=26
2a}
=27
{8f#
16f#
16a
8b
8ee
=28
16dd
16b
8a
8r
16dd
16b
16a
16f#
8a}
=29
*M2/4
{16a
16b
16dd
16ee
16b
16a
16a
16f#
=30
16f#
16e
8d
4e}
=31
{8b
16b
16a
8b
8dd
=32
16f#
16a
16b
16dd
4a}
=33
{16a
16b
16dd
16ee
16b
16a
16a
16f#
=34
16f#
16e
8d
4e}
=35
{16a
16f#
8a
8r
16f#
16a
=36
16b
16a
16dd
16b
16b
16a
16a
16f#
=37
8a
16a
16e
16f#
16e
8a
=38
8.d
16e
4d}
=39
{16ff#
8ee
16ff#
16dd
16ee
16dd
16b
=40
16a
16b
16dd
16ff#
16ee
16dd
16b
16dd
=41
2a}
==
!!!AGN: Xiaodiao, Shidiao, Liuhua liujie diao, Xianhua diao
!! Hier sind viele Weisen zusammengetragen. Wird von Streich-, Matouqin)
!!    und Zupfinstrumenten begleitet. Die Saengerin imitiert die
!!    Zwischenspiele. Charakter der Lokaloper. Saengerin: Huang Bai
!!    +++Dieses Lied wurde GETEILT!! Der 2. u. 3. Teil folgt unter gleicher
!!    Signatur. Mehrere Verzierungen. Vor- und Zwischenspiele weggelassen.
!!!ONB: ESAC (Essen Associative Code) Database: CHINA
!!!AMT: irregular
!!!AIN: vox
!!!EED: Helmut Schaffrath
!!!EEV: 1.0
*-
